X: 10107
T: Difyrrwch
R: reel
M: 4/4
K: Edorian
B2|"Em"e2e2B2d2|"A"~c2BAB2B2|"Em"EF GA B2B2|"A"BA GF"Em" E2:|
B2|:"Em"e2efg2e2|"G"fed2e2B2|"E"ed efg2e2|"G"f2d2"A"e4|
"Em"e2e2B2d2|"A"~c2BAB2B2|"Em"EF GA B2B2|"A"BA GF"Em" E2B2:|

